X: 5601
T: Butcher's Hornpipe
R: three-two
M: 3/2
K: Gmajor
|:GFGA B2 c2 d4|edcB cBAG F2 D2|F2 d2 E2 c2 D2 B2|D2 EF G2 D2 B,2 G,2:|
|:g4 Bc d2 g2 G2|cd e2 A2 a2 f4|e2 ce d2 Bd c2 Ac|D2 G2 GABc A2 G2:|
|:G3 A GABc d2 G2|F2 A4 B2 c2 E2|E3 F EFEF G2 C2|A,2 D2 DEDC B,2 G,2:|

